X:1
T:Golden Apples of the Sun
M:4/4
L:1/4
K:A
 E/2| E E F F| C D E2-| E3 E| B, C D D| C D E2-| E2 z2| E E F F| C D E2-|\
 E3 E| B, C D/2 D3/2| B, A, B,2-| B,4| z2 z E| E E E E| E E E2-| E3 E|\
 E E F2-| F C C D| E4-| E2 z E| B, C D/2 D3/2| C D E2-| E3 E| B,3/2 C/2D/2 D3/2|\
 B, A, B,2|
